assets/Fuel pump/Flat/fuel_pump_flat.svg

<svg width="32" height="32" viewBox="0 0 32 32" fill="none" xmlns="http://www.w3.org/2000/svg">
<path d="M7 29.01V3.99C7 2.89 7.89 2 8.99 2H21.01C22.11 2 23 2.89 23 3.99V29.01H7Z" fill="#F8312F"/>
<path d="M26 12.5C26 12.7761 25.7761 13 25.5 13C25.2239 13 25 12.7761 25 12.5C25 12.2239 25.2239 12 25.5 12C25.7761 12 26 12.2239 26 12.5ZM26 24.5V13H27V24.5C27 25.33 26.33 26 25.5 26C24.67 26 24 25.33 24 24.5V17.5C24 17.22 23.78 17 23.5 17C23.4826 17 23.4468 16.9982 23.4017 16.9958C23.2654 16.9888 23.0451 16.9774 23 17V16C23.0319 15.992 23.3052 15.9968 23.4351 15.999C23.4681 15.9996 23.4919 16 23.5 16C24.33 16 25 16.67 25 17.5V24.5C25 24.78 25.22 25 25.5 25C25.78 25 26 24.78 26 24.5Z" fill="#212121"/>
<path d="M10.03 12H19.97C20.54 12 21 11.54 21 10.97V5.03C21 4.46 20.54 4 19.97 4H10.03C9.46 4 9 4.46 9 5.03V10.97C9 11.54 9.46 12 10.03 12ZM7 28H23.01C23.56 28 24 28.44 24 28.99V30H6V29C6 28.45 6.45 28 7 28ZM23 7.44996C23 7.51996 23.01 7.57996 23.04 7.63996L23.96 9.64996C23.99 9.70996 24 9.77996 24 9.83996V12.94C24 13.53 24.44 13.99 24.99 13.99H26.58C26.81 13.99 27 13.79 27 13.54V9.95996C27 9.81996 26.94 9.68996 26.83 9.59996L23.68 7.08996C23.4 6.86996 23 7.07996 23 7.44996ZM25.58 12.93H25.43C25.2 12.93 25.01 12.73 25.01 12.48V10.83C25.01 10.43 25.47 10.23 25.73 10.51L25.88 10.67C25.96 10.75 26 10.87 26 10.99V12.49C26 12.73 25.81 12.93 25.58 12.93ZM7 14H23V15H7V14Z" fill="#D3D3D3"/>
<path d="M9 6H21V5.03C21 4.46 20.54 4 19.97 4H10.03C9.46 4 9 4.46 9 5.03V6ZM15.5 7H19.5C19.78 7 20 7.22 20 7.5C20 7.78 19.78 8 19.5 8H15.5C15.22 8 15 7.78 15 7.5C15 7.22 15.22 7 15.5 7Z" fill="#212121"/>
</svg>

<svg xmlns="http://www.w3.org/2000/svg" width="32" height="32" fill="none"><path fill="#F8312F" d="M7 29.01V3.99C7 2.89 7.89 2 8.99 2h12.02c1.1 0 1.99.89 1.99 1.99v25.02H7Z"/><path fill="#212121" d="M26 12.5a.5.5 0 1 1-1 0 .5.5 0 0 1 1 0Zm0 12V13h1v11.5c0 .83-.67 1.5-1.5 1.5s-1.5-.67-1.5-1.5v-7c0-.28-.22-.5-.5-.5l-.098-.004c-.137-.007-.357-.019-.402.004v-1c.032-.008.305-.003.435-.001L23.5 16c.83 0 1.5.67 1.5 1.5v7c0 .28.22.5.5.5s.5-.22.5-.5Z"/><path fill="#D3D3D3" d="M10.03 12h9.94c.57 0 1.03-.46 1.03-1.03V5.03C21 4.46 20.54 4 19.97 4h-9.94C9.46 4 9 4.46 9 5.03v5.94c0 .57.46 1.03 1.03 1.03ZM7 28h16.01c.55 0 .99.44.99.99V30H6v-1c0-.55.45-1 1-1ZM23 7.45c0 .07.01.13.04.19l.92 2.01c.03.06.04.13.04.19v3.1c0 .59.44 1.05.99 1.05h1.59c.23 0 .42-.2.42-.45V9.96a.46.46 0 0 0-.17-.36l-3.15-2.51c-.28-.22-.68-.01-.68.36Zm2.58 5.48h-.15c-.23 0-.42-.2-.42-.45v-1.65c0-.4.46-.6.72-.32l.15.16c.08.08.12.2.12.32v1.5c0 .24-.19.44-.42.44ZM7 14h16v1H7v-1Z"/><path fill="#212121" d="M9 6h12v-.97C21 4.46 20.54 4 19.97 4h-9.94C9.46 4 9 4.46 9 5.03V6Zm6.5 1h4c.28 0 .5.22.5.5s-.22.5-.5.5h-4c-.28 0-.5-.22-.5-.5s.22-.5.5-.5Z"/></svg>
